images/sponsor_tuple.svg

<svg width="182" height="51" viewBox="0 0 182 51" fill="none" xmlns="http://www.w3.org/2000/svg">
<path fill-rule="evenodd" clip-rule="evenodd" d="M56 4L38 10V29.5L44 31.5V37L62 43V11.5L56 13.5V4ZM46 32.167L56 35.5V15.608L60 14.275V40.225L46 35.56V32.168V32.167Z" fill="#9FA6B2"/>
<path d="M80.9001 20.4501V31.0001H85.3461V20.4501H88.8761V17.0581H77.3901V20.4511H80.9001V20.4501ZM91.1051 25.2481C91.1051 29.2261 93.4051 31.2541 97.4811 31.2541C101.381 31.2541 103.877 29.4011 103.877 25.2091V17.0581H99.4311V25.0531C99.4311 26.8861 99.0411 27.7831 97.4811 27.7831C95.9011 27.7831 95.5111 26.8861 95.5111 25.0731V17.0581H91.1051V25.2481V25.2481Z" fill="#9FA6B2"/>
<path fill-rule="evenodd" clip-rule="evenodd" d="M106.965 31.0001V17.0581H112.523C116.54 17.0581 118.256 18.8521 118.256 21.8351V21.9131C118.256 24.8191 116.326 26.4571 112.718 26.4571H111.372V31.0001H106.965ZM112.288 23.4931H111.372V20.3531H112.308C113.458 20.3531 114.063 20.7831 114.063 21.8551V21.9331C114.063 22.9661 113.458 23.4931 112.288 23.4931V23.4931Z" fill="#9FA6B2"/>
<path d="M120.563 31.0001V17.0581H124.99V27.5881H130.06V31.0001H120.563ZM132.562 17.0581V31.0001H142.78V27.6071H136.969V25.5211H141.337V22.4211H136.969V20.4511H142.468V17.0581H132.562V17.0581Z" fill="#9FA6B2"/>
</svg>

<svg xmlns="http://www.w3.org/2000/svg" width="182" height="51" fill="#9fa6b2"  xmlns:v="https://vecta.io/nano"><path fill-rule="evenodd" d="M56 4l-18 6v19.5l6 2V37l18 6V11.5l-6 2V4zM46 32.167L56 35.5V15.608l4-1.333v25.95L46 35.56v-3.393z"/><path d="M80.9 20.45V31h4.446V20.45h3.53v-3.392H77.4v3.393h3.5zm10.205 4.798c0 3.978 2.3 6.006 6.376 6.006 3.9 0 6.396-1.853 6.396-6.045v-8.15H99.43v7.995c0 1.833-.4 2.73-1.95 2.73-1.58 0-1.97-.897-1.97-2.7v-8.015h-4.406v8.2z"/><path fill-rule="evenodd" d="M106.965 31V17.058h5.558c4.017 0 5.733 1.794 5.733 4.777v.078c0 2.906-1.93 4.544-5.538 4.544h-1.346V31h-4.407zm5.323-7.507h-.916v-3.14h.936c1.15 0 1.755.43 1.755 1.502v.078c0 1.033-.605 1.56-1.775 1.56h0z"/><path d="M120.563 31V17.058H125v10.53h5.07V31h-9.497zm12-13.942V31h10.218v-3.393h-5.81V25.52h4.368v-3.1h-4.368v-1.97h5.5v-3.393h-9.906z"/></svg>
